X:160
M:4/4
L:1/8
K:G
dB | GGGB d2BG | cBcd e2dc | BGdG BGdG | BAAG A2BA | 
|: Bd g/g/g edBG | cBcd e2dc | BGdG BGdG | BAAG A2Bd | 
g/g/g ge d2BG | cBcd e2dc | Bdgd AdcA | BGGF G4 :|| 

